src/assets/strike2.svg

<svg width="79" height="79" viewBox="0 0 79 79" fill="none" xmlns="http://www.w3.org/2000/svg">
<path fill-rule="evenodd" clip-rule="evenodd" d="M11.2791 0.256057C10.4028 0.426325 9.93524 0.651011 9.49029 1.11624C8.54124 2.10858 4.28622 8.30757 4.13105 8.92416C3.95803 9.61224 4.05925 10.2201 4.66517 12.1266C5.84577 15.8423 8.56425 19.9278 11.6716 22.657C14.5517 25.1863 18.2675 27.5986 19.2836 27.5986C20.1216 27.5986 20.7103 26.4346 20.2795 25.6298C20.1995 25.4802 19.4621 24.9572 18.6408 24.4676C16.2618 23.0489 14.6986 21.8689 12.9129 20.1435C10.9094 18.2079 9.59546 16.4877 8.46883 14.3253C7.70652 12.8618 6.7061 10.2188 6.7061 9.66803C6.7061 9.54654 7.74615 7.97984 9.01744 6.18646L11.3288 2.92577L12.4646 2.81937C15.2783 2.55566 19.382 3.34237 22.507 4.74445C26.1895 6.39667 30.8123 10.0391 33.9581 13.7667C35.2231 15.2658 35.9624 15.518 36.6973 14.7011C37.314 14.0156 37.1704 13.4697 36.0167 12.1118C30.8794 6.06635 24.5231 1.96849 18.1784 0.611531C16.7281 0.30133 12.2371 0.0699362 11.2791 0.256057ZM69.1454 0.320536C67.4045 0.757562 65.5698 2.30918 64.7849 4.0082C63.8872 5.95111 63.629 9.02553 64.0901 12.2791C64.7828 17.167 64.4291 20.396 62.8597 23.5172C62.2669 24.6959 62.1977 25.4705 62.6452 25.918C63.3167 26.5895 64.277 26.4529 64.752 25.618C64.8948 25.367 65.1369 25.1612 65.2899 25.1606C65.5489 25.1596 69.8486 25.6544 71.2979 25.852C71.9348 25.9387 71.9477 25.9528 72.1881 26.8074C72.3224 27.2844 72.6965 28.5322 73.0195 29.5802C76.8486 42.003 76.3485 52.2851 71.5653 59.47C70.3062 61.3611 68.3021 63.4903 67.893 63.3713C67.7336 63.3249 65.9329 63.0978 63.8916 62.8667L60.1802 62.4463L59.8269 61.9806C59.6325 61.7245 59.1868 60.9822 58.8364 60.3311C58.4861 59.6801 58.0733 59.0798 57.919 58.9973C57.0445 58.5294 55.942 59.1466 55.942 60.1043C55.942 60.6206 56.8663 62.3792 57.8898 63.8098C58.647 64.8684 59.0742 64.9904 64.0365 65.5652C69.4138 66.1882 69.1046 66.2539 71.2325 64.0369C76.0947 58.9713 78.4298 51.9164 78.1473 43.1467C77.9996 38.5637 77.2907 34.6213 75.5982 28.9705C74.2123 24.3432 74.1562 24.0437 74.1687 21.3488C74.1813 18.6285 74.3986 17.6115 75.7352 14.0118C76.8163 11.1006 77.1407 9.78495 77.234 7.93472C77.3218 6.19607 77.0861 4.77539 76.5291 3.68351C75.9758 2.59895 74.7467 1.42415 73.5432 0.829357C72.5596 0.343249 72.2598 0.269471 71.0802 0.223894C70.3415 0.195389 69.4708 0.238832 69.1454 0.320536ZM69.8896 2.89498C67.9258 3.37529 66.8738 4.87005 66.5707 7.61156C66.4329 8.85861 66.4583 9.52246 66.7415 12.0504C66.9246 13.6853 67.0734 15.2678 67.072 15.567L67.0696 16.1114L69.5394 16.3888C70.9164 16.5435 72.0299 16.6062 72.0557 16.5306C72.0811 16.4559 72.3803 15.6059 72.7206 14.6418C74.051 10.8719 74.4138 9.66041 74.5767 8.44262C74.8833 6.1514 74.2796 4.38044 72.8921 3.50044C71.7936 2.80382 70.9545 2.63462 69.8896 2.89498ZM41.1389 4.20011C40.3461 4.63088 40.3458 4.89536 41.1329 9.51682C41.8204 13.5523 41.878 13.7846 42.2771 14.1279C42.5082 14.3267 42.8341 14.4893 43.0012 14.4893C43.5371 14.4893 44.1955 14.0455 44.3054 13.6101C44.4339 13.1016 43.187 5.30479 42.8788 4.68896C42.6809 4.29355 42.1416 3.96323 41.7177 3.97756C41.6183 3.98091 41.3579 4.08106 41.1389 4.20011ZM12.8353 5.4464C12.727 5.48984 11.9553 6.48645 11.1204 7.6611C9.41255 10.0639 9.30706 10.4067 10.0479 11.1475C10.9259 12.0256 11.4524 11.7326 13.0825 9.45905L14.1209 8.01093L14.8721 8.05621C16.0417 8.12678 17.1703 8.36687 18.7962 8.89108C20.1797 9.3371 20.3226 9.35631 20.6979 9.1458C21.5473 8.66899 21.7058 7.69113 21.0415 7.02683C20.1633 6.14866 14.0293 4.9673 12.8353 5.4464ZM51.5499 5.54975C51.099 5.79989 46.9484 12.7252 46.9484 13.2273C46.9484 13.6781 47.7202 14.4893 48.149 14.4893C48.9529 14.4893 49.2424 14.1422 51.3161 10.691C52.452 8.80038 53.4172 7.03277 53.461 6.76281C53.5262 6.36085 53.4567 6.18814 53.0762 5.80767C52.5796 5.31104 52.12 5.23345 51.5499 5.54975ZM38.2597 17.3078C30.1157 18.7026 23.4248 24.3699 20.801 32.0954C20.2373 33.7555 20.2321 34.384 20.7787 34.8542C21.7771 35.713 22.6378 35.1551 23.2298 33.2654C25.3467 26.509 31.1062 21.4258 38.2277 20.0289C40.0197 19.6774 43.5117 19.6774 45.3037 20.0289C51.9897 21.3404 57.4593 25.8567 59.8888 32.0719C62.1475 37.85 61.5329 44.2715 58.2057 49.6587C56.6486 52.1796 53.3024 55.2182 50.6068 56.5589C49.5462 57.0864 49.2349 57.4389 49.2349 58.1117C49.2349 58.7669 49.6 59.2374 50.2308 59.3958C50.7057 59.515 52.2276 58.7975 53.9885 57.6244C59.0854 54.2285 62.5461 48.8738 63.5909 42.7666C63.9916 40.424 63.9137 36.692 63.419 34.5343C62.7249 31.5077 61.489 28.7081 59.8032 26.3445C58.7147 24.8183 56.3874 22.4366 54.9511 21.379C52.0325 19.2297 48.3816 17.7496 44.7546 17.245C43.196 17.0283 39.6941 17.0621 38.2597 17.3078ZM66.9092 19.2355C66.9049 19.5175 66.7414 20.3656 66.546 21.1202C66.3504 21.8747 66.2068 22.5107 66.2269 22.5335C66.2551 22.5657 71.0054 23.1619 71.3377 23.175C71.3796 23.1766 71.4253 22.295 71.4394 21.2159L71.4648 19.2538L69.8388 19.078C68.9445 18.9814 67.9212 18.862 67.565 18.8126L66.9171 18.7229L66.9092 19.2355ZM45.2716 22.5061C44.5737 22.8079 43.7991 23.5605 43.4034 24.3213C42.3995 26.2514 43.7844 29.3064 46.1532 30.3872C47.1539 30.8437 48.7653 30.8416 49.6349 30.3826C51.4405 29.4299 52.051 27.2647 51.0862 25.2359C50.0143 22.9815 47.213 21.6665 45.2716 22.5061ZM4.80068 23.849C1.84806 24.7853 -0.0346429 27.5355 0.194616 30.5773C0.40909 33.4217 2.34789 35.9537 6.63613 38.9893C9.95917 41.3418 11.6777 43.1035 12.9487 45.4601C13.706 46.8644 14.1204 47.9661 15.1001 51.1801C19.6545 66.1219 27.9534 75.6113 38.4562 77.8868C40.2833 78.2825 41.0087 78.2887 41.7337 77.9141C42.5163 77.5097 48.6168 72.2183 48.9995 71.6118C49.2755 71.1746 49.3087 70.8917 49.2899 69.1366C49.2014 60.8703 43.8315 52.515 34.5251 46.1635C32.1052 44.5121 30.4181 43.56 26.2937 41.5182C21.8941 39.3402 21.1755 38.8916 19.5499 37.3075C18.0415 35.8376 17.0106 34.3256 15.3309 31.1193C13.8647 28.3203 13.4101 27.6275 12.171 26.3029C10.4156 24.4263 8.75541 23.628 6.64406 23.6455C5.96558 23.6512 5.13604 23.7428 4.80068 23.849ZM46.0338 25.1596C45.2398 25.9537 46.1132 27.6585 47.512 28.0447C49.3791 28.5603 49.3658 25.9939 47.497 25.1452C46.6954 24.7812 46.4094 24.7841 46.0338 25.1596ZM5.10555 26.5854C3.57985 27.2974 2.58096 29.0362 2.81204 30.5777C3.08215 32.3783 4.74871 34.4104 7.6207 36.4405C8.501 37.0627 9.59821 37.8745 10.059 38.2445C10.5198 38.6143 10.9835 38.9503 11.0895 38.991C11.2419 39.0493 12.8612 37.7532 14.755 36.0569C14.9158 35.913 14.8542 35.7071 14.4323 34.978C14.1456 34.4824 13.4211 33.1509 12.8222 32.0191C11.4801 29.483 10.4303 28.0635 9.25859 27.2009C7.82038 26.1421 6.4808 25.9436 5.10555 26.5854ZM52.5659 30.85C50.8076 31.5074 49.8701 33.2738 50.2881 35.1417C50.9121 37.9303 53.7579 39.7537 56.3054 38.9972C57.195 38.733 58.2653 37.6258 58.5239 36.702C58.9185 35.2923 58.4833 33.6425 57.375 32.3478C56.2958 31.0869 53.9151 30.3454 52.5659 30.85ZM42.3355 31.8015C38.9532 33.5621 40.4534 38.8672 44.5962 39.7955C46.8847 40.3084 48.9249 38.6204 48.9284 36.211C48.9332 32.9549 45.0759 30.375 42.3355 31.8015ZM53.0762 33.5739C52.5738 34.0764 53.0598 35.4935 53.9638 36.1629C55.0277 36.9503 56.22 36.5104 56.0394 35.3972C55.9317 34.7344 55.5554 34.196 54.8765 33.734C54.3263 33.3596 53.3751 33.275 53.0762 33.5739ZM43.3693 34.3023C42.787 34.9457 43.3865 36.4662 44.4151 36.9545C45.1983 37.3261 45.8256 37.2764 46.1253 36.8189C46.9848 35.5071 44.4083 33.1541 43.3693 34.3023ZM14.8111 39.4797C13.9451 40.2243 13.1981 40.8721 13.151 40.9192C13.1037 40.9663 13.3071 41.3002 13.6028 41.661C13.8983 42.0218 14.4075 42.7394 14.7341 43.256L15.3279 44.1952L17.3426 42.4446L19.3573 40.6941L18.4812 39.9646C17.9992 39.5633 17.3842 38.9835 17.1144 38.6759C16.8444 38.3681 16.57 38.1186 16.5046 38.1212C16.4391 38.1238 15.6771 38.735 14.8111 39.4797ZM19.0532 44.4446C17.4043 45.8831 16.5467 46.7332 16.5632 46.9126C16.6165 47.4944 18.6254 53.5611 19.4219 55.5461C21.0825 59.6843 23.4528 63.8572 25.77 66.7216C29.5031 71.336 34.362 74.4354 39.3451 75.3807L40.576 75.6142L43.6097 72.9995L46.6435 70.3847V69.0565C46.6435 65.33 45.0784 60.9409 42.4074 57.1774C41.845 56.3846 40.5072 54.8301 39.435 53.723C36.7372 50.9377 33.9122 48.7439 30.1927 46.546C28.7484 45.6925 21.8912 42.2244 21.681 42.2411C21.6191 42.246 20.4365 43.2376 19.0532 44.4446ZM70.3519 49.587C70.0635 49.8389 69.8577 50.3108 69.5783 51.362C69.0693 53.2771 68.33 54.9406 67.299 56.49C66.8306 57.1941 66.3955 57.8021 66.3323 57.8411C66.269 57.8803 65.4315 57.8146 64.4712 57.6953C62.1487 57.4065 61.9972 57.4145 61.528 57.8492C60.9023 58.4292 61.0152 59.5295 61.7405 59.9176C62.2141 60.1711 66.869 60.6874 67.2781 60.5317C67.9529 60.2752 69.6553 57.9553 70.7124 55.8519C71.4993 54.2861 72.2537 52.0193 72.3617 50.8958C72.4369 50.1135 72.4076 49.9953 72.0506 49.6383C71.5557 49.1433 70.8836 49.1232 70.3519 49.587ZM29.4186 64.1345C28.8479 64.3511 28.504 64.8488 28.504 65.4581C28.504 66.032 28.5985 66.1634 29.9979 67.5356C32.2475 69.7416 34.7757 71.3066 37.6402 72.2663C39.7606 72.9767 39.704 72.9933 42.0158 70.9793C44.2017 69.0748 44.4074 68.7497 43.936 67.9427C43.6205 67.4025 43.0562 67.1406 42.5111 67.2816C42.3108 67.3334 41.4745 67.9605 40.6528 68.6753C39.831 69.3901 39.1387 69.975 39.1143 69.975C38.8371 69.975 37.0386 69.2244 35.9866 68.6698C34.2925 67.7764 33.163 66.9321 31.6289 65.4122C30.4637 64.2575 29.921 63.9439 29.4186 64.1345Z" fill="white"/>
</svg>

<svg xmlns="http://www.w3.org/2000/svg" width="79" height="79" fill="none" viewBox="0 0 79 79"><path fill="#fff" fill-rule="evenodd" d="M11.28.256c-.877.17-1.345.395-1.79.86-.949.993-5.204 7.192-5.359 7.808-.173.688-.072 1.296.534 3.203 1.18 3.715 3.9 7.8 7.007 10.53 2.88 2.53 6.595 4.942 7.612 4.942.838 0 1.426-1.164.995-1.97-.08-.149-.817-.672-1.638-1.161-2.38-1.42-3.942-2.6-5.728-4.324-2.004-1.936-3.318-3.656-4.444-5.819-.762-1.463-1.763-4.106-1.763-4.657 0-.121 1.04-1.688 2.311-3.482l2.312-3.26 1.136-.107c2.813-.263 6.917.523 10.042 1.925 3.682 1.653 8.305 5.295 11.451 9.023 1.265 1.499 2.004 1.751 2.74.934.616-.685.472-1.231-.681-2.59C30.879 6.067 24.523 1.969 18.178.612c-1.45-.31-5.94-.541-6.899-.355m57.865.065c-1.74.437-3.575 1.988-4.36 3.687-.898 1.943-1.156 5.018-.695 8.271.693 4.888.34 8.117-1.23 11.238-.593 1.179-.662 1.954-.215 2.401.672.672 1.632.535 2.107-.3.143-.251.385-.457.538-.457.259-.001 4.559.493 6.008.691.637.087.65.1.89.955.134.477.508 1.725.831 2.773 3.83 12.423 3.33 22.705-1.454 29.89-1.259 1.891-3.263 4.02-3.672 3.901-.16-.046-1.96-.273-4.001-.504l-3.712-.42-.353-.466c-.194-.257-.64-.999-.99-1.65s-.764-1.251-.918-1.334c-.874-.468-1.977.15-1.977 1.107 0 .517.924 2.275 1.948 3.706.757 1.058 1.184 1.18 6.147 1.755 5.377.623 5.068.689 7.195-1.528 4.863-5.066 7.198-12.12 6.915-20.89-.147-4.583-.856-8.526-2.549-14.176-1.386-4.628-1.442-4.927-1.43-7.622.013-2.72.23-3.738 1.567-7.337 1.081-2.911 1.406-4.227 1.499-6.077.088-1.739-.148-3.16-.705-4.251-.553-1.085-1.782-2.26-2.986-2.855C72.56.343 72.26.27 71.08.224c-.739-.029-1.61.015-1.935.097m.745 2.574c-1.964.48-3.016 1.975-3.32 4.717-.137 1.247-.112 1.91.172 4.438.183 1.635.331 3.218.33 3.517l-.002.544 2.47.278c1.376.155 2.49.217 2.516.142s.324-.925.665-1.89c1.33-3.77 1.693-4.98 1.856-6.198.306-2.292-.297-4.063-1.685-4.943-1.098-.696-1.937-.865-3.002-.605M41.139 4.2c-.793.43-.793.695-.006 5.317.687 4.035.745 4.268 1.144 4.61.231.2.557.362.724.362.536 0 1.195-.444 1.304-.879.129-.508-1.118-8.305-1.426-8.921-.198-.395-.737-.726-1.161-.711-.1.003-.36.103-.58.222M12.835 5.446c-.108.044-.88 1.04-1.715 2.215-1.707 2.403-1.813 2.746-1.072 3.487.878.878 1.404.585 3.034-1.689l1.039-1.448.751.045c1.17.07 2.298.31 3.924.835 1.384.446 1.527.465 1.902.255.85-.477 1.008-1.455.343-2.12-.878-.877-7.012-2.059-8.206-1.58m38.715.104c-.451.25-4.602 7.175-4.602 7.677 0 .451.772 1.262 1.201 1.262.804 0 1.093-.347 3.167-3.798 1.136-1.89 2.101-3.658 2.145-3.928.065-.402-.004-.575-.385-.955-.496-.497-.956-.575-1.526-.258M38.26 17.308c-8.144 1.395-14.835 7.062-17.46 14.787-.564 1.66-.569 2.289-.022 2.76.998.858 1.859.3 2.45-1.59 2.118-6.756 7.877-11.84 14.999-13.236 1.792-.352 5.284-.352 7.076 0 6.686 1.311 12.155 5.828 14.585 12.043 2.258 5.778 1.644 12.2-1.683 17.587-1.557 2.52-4.904 5.56-7.6 6.9-1.06.527-1.371.88-1.371 1.553 0 .655.365 1.125.996 1.284.475.119 1.997-.599 3.758-1.772 5.096-3.396 8.557-8.75 9.602-14.857.4-2.343.323-6.075-.172-8.233-.694-3.026-1.93-5.826-3.616-8.19-1.088-1.526-3.416-3.907-4.852-4.965-2.919-2.15-6.57-3.63-10.196-4.134-1.559-.217-5.06-.183-6.495.063m28.65 1.927c-.005.282-.169 1.13-.364 1.885-.196.755-.34 1.39-.32 1.413.03.033 4.78.629 5.112.642.042.002.087-.88.101-1.96l.026-1.961-1.626-.176c-.894-.097-1.918-.216-2.274-.265l-.648-.09zm-21.638 3.271c-.698.302-1.473 1.055-1.869 1.815-1.003 1.93.381 4.985 2.75 6.066 1 .457 2.612.455 3.482-.004 1.806-.953 2.416-3.118 1.451-5.147-1.072-2.254-3.873-3.57-5.814-2.73M4.8 23.85c-2.953.936-4.836 3.686-4.606 6.728.214 2.845 2.153 5.377 6.441 8.412 3.323 2.353 5.042 4.115 6.313 6.471.757 1.404 1.171 2.506 2.151 5.72 4.554 14.942 12.853 24.431 23.356 26.707 1.827.395 2.553.402 3.278.027.782-.404 6.883-5.696 7.265-6.302.276-.437.31-.72.29-2.475-.088-8.267-5.458-16.622-14.764-22.973-2.42-1.652-4.107-2.604-8.231-4.646-4.4-2.178-5.119-2.626-6.744-4.21-1.509-1.47-2.54-2.982-4.22-6.189-1.465-2.799-1.92-3.491-3.159-4.816-1.755-1.877-3.416-2.675-5.527-2.658-.678.006-1.508.098-1.843.204m41.233 1.31c-.794.795.08 2.5 1.478 2.886 1.867.515 1.854-2.051-.015-2.9-.802-.364-1.088-.36-1.463.015M5.106 26.586c-1.526.712-2.525 2.451-2.294 3.993.27 1.8 1.937 3.832 4.809 5.863.88.622 1.977 1.433 2.438 1.803.46.37.925.706 1.03.747.153.058 1.772-1.238 3.666-2.934.16-.144.1-.35-.323-1.079a124 124 0 0 1-1.61-2.959c-1.342-2.536-2.392-3.955-3.563-4.818-1.439-1.059-2.778-1.257-4.153-.616m47.46 4.265c-1.758.657-2.696 2.424-2.278 4.292.624 2.788 3.47 4.612 6.017 3.855.89-.264 1.96-1.371 2.219-2.295.395-1.41-.04-3.06-1.149-4.354-1.08-1.261-3.46-2.003-4.81-1.498m-10.23.951c-3.383 1.761-1.883 7.066 2.26 7.994 2.289.513 4.329-1.175 4.332-3.584.005-3.256-3.852-5.836-6.592-4.41m10.74 1.773c-.502.502-.016 1.92.888 2.589 1.064.787 2.256.347 2.075-.766-.107-.663-.484-1.201-1.163-1.663-.55-.374-1.5-.459-1.8-.16m-9.707.728c-.582.644.017 2.164 1.046 2.653.783.371 1.41.321 1.71-.136.86-1.312-1.717-3.665-2.756-2.517M14.811 39.48c-.866.744-1.613 1.392-1.66 1.44-.047.046.156.38.452.741a19 19 0 0 1 1.131 1.595l.594.94 2.015-1.751 2.014-1.75-.876-.73c-.482-.402-1.097-.982-1.367-1.29-.27-.307-.544-.556-.61-.554s-.827.614-1.693 1.359m4.242 4.965c-1.649 1.438-2.506 2.288-2.49 2.468.053.581 2.062 6.648 2.859 8.633 1.66 4.138 4.03 8.311 6.348 11.176 3.733 4.614 8.592 7.713 13.575 8.659l1.231.233L43.61 73l3.034-2.614v-1.329c0-3.726-1.566-8.115-4.237-11.879-.562-.792-1.9-2.347-2.972-3.454-2.698-2.785-5.523-4.98-9.242-7.177-1.445-.853-8.302-4.322-8.512-4.305-.062.005-1.245.997-2.628 2.204m51.299 5.142c-.288.252-.494.724-.774 1.775-.509 1.915-1.248 3.579-2.279 5.128-.468.704-.904 1.312-.967 1.351-.063.04-.9-.026-1.86-.146-2.323-.288-2.475-.28-2.944.154-.626.58-.513 1.68.212 2.069.474.253 5.129.77 5.538.614.675-.257 2.377-2.577 3.434-4.68.787-1.566 1.542-3.833 1.65-4.956.075-.782.046-.9-.311-1.258-.495-.495-1.167-.515-1.7-.051M29.419 64.135a1.37 1.37 0 0 0-.915 1.323c0 .574.095.705 1.494 2.078 2.25 2.206 4.778 3.77 7.642 4.73 2.12.71 2.064.727 4.376-1.287 2.186-1.904 2.391-2.23 1.92-3.036-.316-.54-.88-.802-1.425-.661-.2.051-1.037.678-1.858 1.393s-1.514 1.3-1.539 1.3c-.277 0-2.075-.75-3.127-1.305-1.695-.894-2.824-1.738-4.358-3.258-1.165-1.155-1.708-1.468-2.21-1.278" clip-rule="evenodd"/></svg>
